img/icon-tool.svg

<svg fill="none" height="61" viewBox="0 0 75 61" width="75" xmlns="http://www.w3.org/2000/svg"><path clip-rule="evenodd" d="m2.103 0c-1.936 0-2.103 2.041-2.103 2.041v15.812c0 2.936 2.903 3.002 2.903 3.002h9.007c1.935 0 1.601 1.334 1.601 1.334s-2.469 13.01-2.735 15.211c-.267 2.203-1.868 3.604-1.868 3.604s-2.135 1.201-3.002 1.668-.867 2.201-.867 2.201h30.889v-.734c0-1.467-6.472-3.135-9.073-3.402-2.602-.266-2.068-2.002-2.068-2.002l1.067-7.805h3.002l1.134-7.873h-3.002l.331-2.737 8.609-.131c5.805-.601 10.008-4.07 10.008-4.07v-12.01c-4.603-3.269-11.943-4.109-11.943-4.109zm58.284 8.016h13.488c.575 0 1.042 1.112 1.042 2.484s-.467 2.484-1.042 2.484h-13.488c-.621 2.287-2.072 3.891-3.762 3.891h-7.542v-12.75h7.542c1.691 0 3.141 1.604 3.762 3.891zm-53.48 52.984c-1.868 0-1.868-2.051-1.868-2.051v-11.007h30.889v11.074c0 1.8-2.001 1.984-2.001 1.984zm29.093-56.031v-.031c0-.55-.45-1-1-1h-29.969c-.55 0-1 .45-1 1v.031c0 .55.45 1 1 1h29.969c.55 0 1-.45 1-1z" fill="#fff" fill-rule="evenodd"/></svg>

<svg width="75" height="61" viewBox="0 0 75 61" fill="none" xmlns="http://www.w3.org/2000/svg">
<path fill-rule="evenodd" clip-rule="evenodd" d="M2.103 0C0.167 0 0 2.041 0 2.041V17.853C0 20.789 2.903 20.855 2.903 20.855H11.91C13.845 20.855 13.511 22.189 13.511 22.189C13.511 22.189 11.042 35.199 10.776 37.4C10.509 39.603 8.908 41.004 8.908 41.004C8.908 41.004 6.773 42.205 5.906 42.672C5.039 43.139 5.039 44.873 5.039 44.873H35.928V44.139C35.928 42.672 29.456 41.004 26.855 40.737C24.253 40.471 24.787 38.735 24.787 38.735L25.854 30.93H28.856L29.99 23.057H26.988L27.319 20.32L35.928 20.189C41.733 19.588 45.936 16.119 45.936 16.119V4.109C41.333 0.84 33.993 0 33.993 0H2.103ZM60.387 8.016H73.875C74.45 8.016 74.917 9.128 74.917 10.5C74.917 11.872 74.45 12.984 73.875 12.984H60.387C59.766 15.271 58.315 16.875 56.625 16.875H49.083V4.125H56.625C58.316 4.125 59.766 5.729 60.387 8.016ZM6.907 61C5.039 61 5.039 58.949 5.039 58.949V47.942H35.928V59.016C35.928 60.816 33.927 61 33.927 61H6.907ZM36 4.969V4.938C36 4.388 35.55 3.938 35 3.938H5.031C4.481 3.938 4.031 4.388 4.031 4.938V4.969C4.031 5.519 4.481 5.969 5.031 5.969H35C35.55 5.969 36 5.519 36 4.969Z" fill="white"/>
</svg>
